priv/static/images/frameworks/express.svg

<svg
  width="128"
  height="128"
  viewBox="0 0 128 128"
  fill="none"
  xmlns="http://www.w3.org/2000/svg"
>
  <path
    d="M126.67 98.4397C122.11 99.5997 119.29 98.4897 116.76 94.6897C111.08 86.1797 104.81 78.0597 98.7598 69.7897C97.9798 68.7197 97.1698 67.6697 96.1598 66.3397C88.9998 75.9997 81.8498 85.1997 75.1398 94.7697C72.7398 98.1897 70.2198 99.6797 65.7398 98.4697L92.6598 62.3397L67.5998 29.7097C71.9098 28.8697 74.8898 29.2997 77.5298 33.1597C83.3598 41.6797 89.7898 49.7897 96.1998 58.3697C102.65 49.8197 109 41.6997 115 33.2597C117.41 29.8397 120 28.5397 124.33 29.7997C121.05 34.1497 117.84 38.4297 114.61 42.6797C110.25 48.4097 105.97 54.2097 101.45 59.8197C99.8398 61.8197 100.1 63.1197 101.54 65.0097C109.9 75.9997 118.16 87.0997 126.67 98.4397ZM1.3298 61.7397C2.0498 58.1297 2.5298 54.4497 3.5298 50.9097C9.5298 29.4797 34.1298 20.5697 51.0298 33.8497C60.9298 41.6397 63.3898 52.6197 62.8998 64.9997H7.0998C6.2598 87.2097 22.2498 100.62 42.6298 93.7797C49.7798 91.3797 53.9898 85.7797 56.0998 78.7797C57.1698 75.2697 58.9398 74.7197 62.2398 75.7197C60.5498 84.4797 56.7198 91.7997 48.7198 96.3797C36.7198 103.24 19.5898 101.02 10.5798 91.4897C5.2598 85.8897 2.9998 78.9197 1.9998 71.3897C1.8498 70.1897 1.5398 69.0097 1.2998 67.8197C1.3198 65.793 1.3298 63.7663 1.3298 61.7397ZM7.1998 60.2497H57.6298C57.2998 44.1897 47.2998 32.7797 33.6298 32.6797C18.6298 32.5597 7.8498 43.6997 7.1998 60.2497Z"
    fill="white"
  />
</svg>

<svg xmlns="http://www.w3.org/2000/svg" width="128" height="128" fill="none"><path fill="#fff" d="M126.67 98.44c-4.56 1.16-7.38.05-9.91-3.75-5.68-8.51-11.95-16.63-18-24.9-.78-1.07-1.59-2.12-2.6-3.45C89 76 81.85 85.2 75.14 94.77c-2.4 3.42-4.92 4.91-9.4 3.7l26.92-36.13L67.6 29.71c4.31-.84 7.29-.41 9.93 3.45 5.83 8.52 12.26 16.63 18.67 25.21 6.45-8.55 12.8-16.67 18.8-25.11 2.41-3.42 5-4.72 9.33-3.46-3.28 4.35-6.49 8.63-9.72 12.88-4.36 5.73-8.64 11.53-13.16 17.14-1.61 2-1.35 3.3.09 5.19C109.9 76 118.16 87.1 126.67 98.44M1.33 61.74c.72-3.61 1.2-7.29 2.2-10.83 6-21.43 30.6-30.34 47.5-17.06C60.93 41.64 63.39 52.62 62.9 65H7.1c-.84 22.21 15.15 35.62 35.53 28.78 7.15-2.4 11.36-8 13.47-15 1.07-3.51 2.84-4.06 6.14-3.06-1.69 8.76-5.52 16.08-13.52 20.66-12 6.86-29.13 4.64-38.14-4.89C5.26 85.89 3 78.92 2 71.39c-.15-1.2-.46-2.38-.7-3.57q.03-3.04.03-6.08m5.87-1.49h50.43c-.33-16.06-10.33-27.47-24-27.57-15-.12-25.78 11.02-26.43 27.57"/></svg>
